packages/core/src/svgs/tokens/mono/LET.svg

<svg width="24" height="24" viewBox="0 0 24 24" fill="none" xmlns="http://www.w3.org/2000/svg">
<path d="M16.226 21.065C14.9026 21.6826 13.4597 22.0015 11.9994 21.9994C10.4732 21.9994 9.0271 21.6575 7.73343 21.0463C8.41464 21.1445 9.21269 21.1669 9.95524 21.1494C10.8652 21.1276 11.6976 21.0457 12.1388 20.9663C13.2525 21.1488 14.8168 21.1938 16.226 21.065ZM16.5511 20.9058C15.2049 21.0595 13.6637 21.0431 12.4994 20.8932C14.5417 20.4245 17.5804 18.9033 19.5428 15.8847C19.5714 15.9025 19.6033 15.9143 19.6366 15.9197C19.67 15.9251 19.7039 15.9239 19.7368 15.9162C19.7696 15.9085 19.8005 15.8943 19.8279 15.8746C19.8553 15.855 19.8785 15.83 19.8961 15.8013C19.9139 15.7726 19.9257 15.7408 19.9313 15.7074C19.9367 15.6741 19.9354 15.6402 19.9276 15.6073C19.9199 15.5745 19.9058 15.5435 19.8861 15.5162C19.8664 15.4888 19.8415 15.4656 19.8127 15.4478C20.5701 14.1586 21.132 12.6168 21.3583 10.7919C21.6183 11.57 21.8095 12.4117 21.9096 13.3192H21.9126C21.4751 16.636 19.4133 19.4396 16.5511 20.9058ZM12.1382 20.8394C14.1506 20.4738 17.4022 18.9658 19.4534 15.7909C19.4315 15.7519 19.4203 15.7078 19.4209 15.6629C19.4213 15.6181 19.4336 15.5744 19.4563 15.5357C19.4792 15.4972 19.5116 15.4653 19.5505 15.4431C19.5895 15.421 19.6337 15.4095 19.6784 15.4097H19.6891C20.4809 14.0692 21.0601 12.4505 21.2627 10.5194C21.1001 10.0696 20.9099 9.63026 20.6934 9.20386C20.6479 9.20284 20.6035 9.18972 20.5648 9.1658C20.526 9.14203 20.4943 9.1082 20.4729 9.0681C20.4516 9.02796 20.4412 8.98284 20.4431 8.93738C20.4449 8.89194 20.4587 8.84779 20.4834 8.8095C18.7847 5.75841 16.0405 4.02726 14.3737 3.44728C14.344 3.4797 14.3065 3.50397 14.2648 3.51773C14.2231 3.5315 14.1786 3.53431 14.1355 3.5259C14.0924 3.51748 14.0522 3.49815 14.0187 3.46971C13.9853 3.44128 13.9596 3.40472 13.9443 3.36354C11.9256 3.30292 8.76711 3.92164 6.21788 6.12277C6.23779 6.17152 6.24218 6.22522 6.23048 6.27656C6.21877 6.3279 6.19153 6.37439 6.15247 6.40969C6.1134 6.44501 6.0644 6.46743 6.01215 6.4739C5.95989 6.48038 5.9069 6.47059 5.86041 6.44587C4.69984 7.54331 3.6899 8.99447 3.00807 10.8906C3.02774 10.921 3.04073 10.9552 3.0462 10.991C3.05168 11.0267 3.04949 11.0631 3.03981 11.098C3.03011 11.1328 3.01314 11.1654 2.99 11.1931C2.96686 11.2209 2.93808 11.2435 2.90556 11.2594C3.28992 13.711 4.92421 17.6065 8.659 19.6538C8.69709 19.6127 8.7476 19.5853 8.80281 19.5757C8.85802 19.5659 8.91488 19.5747 8.96466 19.6005C9.01444 19.6261 9.05442 19.6676 9.07845 19.7182C9.10245 19.7688 9.1093 19.8259 9.09778 19.8807C9.99461 20.3182 11.0044 20.6513 12.1382 20.8394ZM6.14477 6.02152C6.0974 5.98138 6.03707 5.95978 5.975 5.96077C5.91292 5.96175 5.8533 5.98524 5.80725 6.02687C5.76119 6.06851 5.7318 6.12544 5.72457 6.18711C5.71734 6.24878 5.73274 6.31096 5.76791 6.36213C4.60735 7.46082 3.59615 8.91073 2.90869 10.8001C2.88699 10.7891 2.86384 10.7813 2.83994 10.7769C2.76371 10.0545 2.71245 8.81762 2.89619 7.85955C3.94323 5.56491 5.81468 3.74868 8.14028 2.77233L8.14089 2.77671C8.69274 2.70483 9.68211 2.65296 10.7889 2.71858C11.7651 2.77671 12.8287 2.92669 13.7624 3.2348C11.7194 3.21605 8.64462 3.86851 6.14477 6.02152ZM2.70246 8.31139C2.60371 9.18578 2.65057 10.1669 2.71558 10.7837C2.66093 10.8008 2.61355 10.8356 2.58094 10.8826C2.54834 10.9297 2.53238 10.9863 2.53562 11.0435C2.53884 11.1006 2.56108 11.155 2.59878 11.1982C2.63647 11.2412 2.68748 11.2705 2.7437 11.2813C2.49295 12.089 2.29526 12.9125 2.15185 13.746C1.83053 11.9184 2.0215 10.0375 2.70246 8.31139ZM8.59838 19.7632C8.58798 19.8013 8.58652 19.8414 8.59412 19.88C8.60172 19.9188 8.61816 19.9553 8.64218 19.9866C8.6662 20.018 8.69714 20.0433 8.73258 20.0607C8.76801 20.0782 8.80701 20.0871 8.84648 20.0869C8.88424 20.0869 8.92151 20.0786 8.95565 20.0624C8.98979 20.0464 9.01994 20.0229 9.04397 19.9939C9.85462 20.3888 10.7564 20.7001 11.7563 20.8976C11.297 20.9556 10.6482 21.0075 9.95203 21.0245C9.05522 21.0457 8.08528 21.0075 7.34282 20.8514C6.04811 20.169 4.91864 19.2113 4.0339 18.0454C3.14917 16.8797 2.53063 15.5341 2.22185 14.1036C2.34685 13.2536 2.57997 12.2399 2.81558 11.4712C3.25617 13.953 4.91733 17.7453 8.59838 19.7632ZM21.9676 12.7974C22.0775 11.4356 21.9071 10.0658 21.4664 8.77262C21.4747 9.35057 21.4496 9.92862 21.3914 10.5038C21.6458 11.2138 21.8439 11.978 21.9676 12.7974ZM21.3327 8.40388C20.6921 6.74646 19.6226 5.28907 18.2334 4.181C17.656 3.90663 16.8392 3.71102 16.0617 3.58104C15.5803 3.50038 15.0957 3.43991 14.6092 3.39979C16.3061 4.04851 18.9252 5.77153 20.5777 8.72137C20.6075 8.70554 20.64 8.69571 20.6735 8.69246C20.7071 8.6892 20.7411 8.6926 20.7733 8.70243C20.8055 8.71227 20.8354 8.72836 20.8615 8.74978C20.8875 8.77122 20.909 8.79755 20.9249 8.8273C20.9407 8.85705 20.9506 8.88963 20.9538 8.92318C20.957 8.95672 20.9537 8.99058 20.9437 9.02282C20.934 9.05506 20.9179 9.08502 20.8965 9.11112C20.8751 9.13708 20.8487 9.15866 20.8189 9.17441C20.9901 9.51316 21.1483 9.86635 21.2908 10.235C21.3401 9.65257 21.3551 9.04198 21.3327 8.40388ZM17.8479 3.88851C17.318 3.69978 16.6854 3.55853 16.0824 3.45729C15.5389 3.36616 14.9915 3.30109 14.4418 3.2623C14.4399 3.20425 14.4184 3.14856 14.3807 3.10436C14.343 3.06016 14.2915 3.03006 14.2345 3.01902C14.1773 3.00799 14.1183 3.01665 14.0668 3.04358C14.0154 3.07053 13.9746 3.11415 13.9511 3.1673C12.9675 2.81983 11.8301 2.65545 10.7964 2.59358C10.0509 2.54845 9.30325 2.55346 8.55838 2.60858C9.66067 2.20507 10.8255 1.99923 11.9994 2.00049C14.183 2.00049 16.2036 2.70108 17.8479 3.88851ZM19.4991 11.9999C19.4991 16.1416 16.1411 19.4996 11.9994 19.4996C7.85779 19.4996 4.49986 16.1416 4.49986 11.9999C4.49986 7.85829 7.85779 4.50036 11.9994 4.50036C16.1411 4.50036 19.4991 7.85829 19.4991 11.9999Z" fill="white"/>
<path fill-rule="evenodd" clip-rule="evenodd" d="M12 15.7499C12.4924 15.7499 12.9801 15.6529 13.435 15.4643C13.89 15.2759 14.3033 14.9998 14.6515 14.6515C14.9997 14.3033 15.2759 13.89 15.4643 13.435C15.6529 12.9801 15.7499 12.4924 15.7499 12C15.7499 11.5077 15.6529 11.02 15.4643 10.5651C15.2759 10.1101 14.9997 9.69667 14.6515 9.34859C14.3033 9.00034 13.89 8.72413 13.435 8.53568C12.9801 8.34723 12.4924 8.25024 12 8.25024C11.0056 8.25024 10.0518 8.64531 9.34859 9.34859C8.64531 10.0518 8.25024 11.0056 8.25024 12C8.25024 12.9945 8.64531 13.9484 9.34859 14.6515C10.0518 15.3548 11.0056 15.7499 12 15.7499ZM11.0626 11.3751C11.3112 11.3751 11.5497 11.2762 11.7255 11.1005C11.9013 10.9247 12 10.6862 12 10.4376C12 10.189 11.9013 9.95055 11.7255 9.77469C11.5497 9.59897 11.3112 9.50024 11.0626 9.50024C10.814 9.50024 10.5756 9.59897 10.3997 9.77469C10.224 9.95055 10.1251 10.189 10.1251 10.4376C10.1251 10.6862 10.224 10.9247 10.3997 11.1005C10.5756 11.2762 10.814 11.3751 11.0626 11.3751Z" fill="white"/>
</svg>

<svg xmlns="http://www.w3.org/2000/svg" width="24" height="24" fill="none" viewBox="0 0 24 24">
    <path fill="#fff" d="M16.226 21.065a10 10 0 0 1-4.227.934 10 10 0 0 1-4.266-.953c.682.099 1.48.12 2.222.103.91-.021 1.743-.103 2.184-.183 1.114.183 2.678.228 4.087.099m.325-.16c-1.346.154-2.887.138-4.052-.012 2.043-.469 5.081-1.99 7.044-5.008a.25.25 0 0 0 .285-.01.25.25 0 0 0 .103-.168.26.26 0 0 0-.118-.26c.757-1.288 1.319-2.83 1.545-4.655.26.778.451 1.62.552 2.527h.003a10.01 10.01 0 0 1-5.362 7.587m-4.413-.066c2.013-.365 5.264-1.873 7.315-5.048a.25.25 0 0 1 .003-.255.26.26 0 0 1 .222-.126h.011c.792-1.34 1.371-2.96 1.574-4.89q-.245-.676-.57-1.316a.255.255 0 0 1-.21-.395c-1.698-3.05-4.442-4.782-6.11-5.362a.257.257 0 0 1-.429-.083c-2.018-.061-5.177.558-7.726 2.759a.256.256 0 0 1-.358.323C4.7 7.543 3.69 8.994 3.008 10.89a.256.256 0 0 1-.102.368c.384 2.452 2.018 6.348 5.753 8.395a.256.256 0 0 1 .439.227c.897.437 1.906.77 3.04.958M6.145 6.022a.256.256 0 0 0-.377.34c-1.16 1.099-2.172 2.549-2.86 4.438a.3.3 0 0 0-.068-.023c-.076-.722-.128-1.96.056-2.917A10.03 10.03 0 0 1 8.14 2.772v.005c.553-.072 1.542-.124 2.649-.058.976.058 2.04.208 2.973.516-2.043-.019-5.117.634-7.617 2.787m-3.443 2.29c-.098.874-.051 1.855.014 2.472a.257.257 0 0 0 .028.497 19 19 0 0 0-.592 2.465 10.06 10.06 0 0 1 .55-5.435m5.896 11.451a.256.256 0 0 0 .446.23c.81.396 1.712.707 2.712.905a19 19 0 0 1-1.804.127c-.897.02-1.867-.017-2.61-.174a10.02 10.02 0 0 1-5.12-6.747c.125-.85.358-1.864.594-2.633.44 2.482 2.101 6.274 5.782 8.292m13.37-6.966a10 10 0 0 0-.502-4.024 15 15 0 0 1-.075 1.73c.255.71.453 1.475.577 2.294m-.635-4.393a10 10 0 0 0-3.1-4.223c-.577-.274-1.394-.47-2.171-.6q-.723-.12-1.453-.181c1.697.649 4.316 2.372 5.969 5.321a.257.257 0 0 1 .24.453q.258.509.473 1.061.075-.873.042-1.831m-3.485-4.515c-.53-.19-1.163-.33-1.766-.432a17 17 0 0 0-1.64-.195.256.256 0 0 0-.49-.095c-.985-.347-2.122-.512-3.156-.573a17 17 0 0 0-2.238.015A10 10 0 0 1 12 2c2.184 0 4.205.701 5.849 1.889m1.651 8.11a7.5 7.5 0 1 1-15 0 7.5 7.5 0 0 1 15 0"/>
    <path fill="#fff" fill-rule="evenodd" d="M12 15.75a3.75 3.75 0 0 0 3.464-2.315 3.747 3.747 0 0 0-2.029-4.9A3.75 3.75 0 1 0 12 15.75m-.937-4.375a.938.938 0 1 0 0-1.876.938.938 0 0 0 0 1.876" clip-rule="evenodd"/>
</svg>
